!!!SOCIAL_FUNCTION:	songs with treatment of the sick
!!!PDT:	1943
!!!OTL: No_4_Song_When_Treating_Palsy.krn
!!!REG: British Columbia
**kern
*staff1
=1-
*clefF4
*k[b-e-]
*M2/4
4r
8.r
16G\
=2
4G\
8.F\L
16F\Jk
=3||
*M3/4
16F\LK
8.D\J
2r
=4
8.G\L
16G\Jk
8.F\L
16G\Jk
8.D\L
16F\Jk
=5||
*M2/4
8.D\L
16D\Jk
8D\
8r
=6
12D\L
12BB-\
12F\J
4D\
=7||
*M3/4
8G\L
8F\J
4D\
8F\
8r
=8
8G\L
8F\J
4D\
8.F\L
16G\Jk
=9||
*M2/4
16F\LK
8D\
16D\Jk
8D\
8r
=10
12D\L
12BB-\
12F\J
4D\
=11||
*M3/4
8F\L
8D\J
4D\
8BB-/
8r
=12
12G\L
12F\
12G\J
8.F\L
16F\Jk
32F\LLK
16.D\J
8D\J
=13||
*M2/4
4D\
8BB-/
8r
=14
4r
8.r
16G\
=15
4F\
16G\LL
16G\
16G\
16G\JJ
=16
16F\LK
8.D\J
4BB-/
=17
4D\
4F\
=18
8D/L
8BB-/J
4r
==
*-
